assets/Thread/Flat/thread_flat.svg

<svg width="32" height="32" viewBox="0 0 32 32" fill="none" xmlns="http://www.w3.org/2000/svg">
<path d="M5 11L12 9.98657L19 11V25L12 26.0111L5 25V11Z" fill="#00A6ED"/>
<path d="M4.5 6C3.11929 6 2 7.11929 2 8.5C2 9.88071 3.11929 11 4.5 11H19.5C20.8807 11 22 9.88071 22 8.5C22 7.11929 20.8807 6 19.5 6H4.5Z" fill="#F3AD61"/>
<path d="M4.5 25C3.11929 25 2 26.1193 2 27.5C2 28.8807 3.11929 30 4.5 30H19.5C20.8807 30 22 28.8807 22 27.5C22 26.1193 20.8807 25 19.5 25H4.5Z" fill="#F3AD61"/>
<path d="M19.5 3.25C19.0858 3.25 18.75 3.58579 18.75 4C18.75 4.41421 19.0858 4.75 19.5 4.75C22.6002 4.75 24.5302 7.00229 24.6895 9.17973C24.7682 10.2551 24.4172 11.306 23.5611 12.0978C22.6985 12.8956 21.245 13.5 19 13.5H5V15H19C21.505 15 23.364 14.3232 24.5795 13.1991C25.8015 12.069 26.2943 10.5574 26.1855 9.07027C25.9698 6.12271 23.3998 3.25 19.5 3.25Z" fill="#3F5FFF"/>
<path d="M5 16H19V17.5H5V16Z" fill="#3F5FFF"/>
<path d="M19 21H5V22.5H19V21Z" fill="#3F5FFF"/>
<path d="M30 6.75C30 7.99264 28.9927 9 27.75 9C27.4083 9 27.0844 8.92383 26.7944 8.78756C26.7813 8.80066 26.7673 8.81325 26.7526 8.82526L8.72119 22.8234C8.48428 23.0094 8.14542 22.9829 7.94827 22.7556C7.75055 22.5356 7.77726 22.1944 8 22L25.5 7.5C25.532 7.47097 25.5668 7.44651 25.6035 7.42661C25.5363 7.21306 25.5 6.98576 25.5 6.75C25.5 5.50736 26.5074 4.5 27.75 4.5C28.9927 4.5 30 5.50736 30 6.75ZM28.5 6.75C28.5 6.33579 28.1642 6 27.75 6C27.3358 6 27 6.33579 27 6.75C27 7.16421 27.3358 7.5 27.75 7.5C28.1642 7.5 28.5 7.16421 28.5 6.75Z" fill="#D3D3D3"/>
<path d="M5 18.5H19V20H5V18.5Z" fill="#3F5FFF"/>
</svg>

<svg xmlns="http://www.w3.org/2000/svg" width="32" height="32" fill="none"><path fill="#00A6ED" d="m5 11 7-1.013L19 11v14l-7 1.011L5 25V11Z"/><path fill="#F3AD61" d="M4.5 6a2.5 2.5 0 0 0 0 5h15a2.5 2.5 0 0 0 0-5h-15ZM4.5 25a2.5 2.5 0 0 0 0 5h15a2.5 2.5 0 0 0 0-5h-15Z"/><path fill="#3F5FFF" d="M19.5 3.25a.75.75 0 0 0 0 1.5c3.1 0 5.03 2.252 5.19 4.43.078 1.075-.273 2.126-1.129 2.918-.863.798-2.316 1.402-4.561 1.402H5V15h14c2.505 0 4.364-.677 5.58-1.8 1.222-1.131 1.714-2.643 1.606-4.13C25.97 6.123 23.4 3.25 19.5 3.25ZM5 16h14v1.5H5V16ZM19 21H5v1.5h14V21Z"/><path fill="#D3D3D3" d="M30 6.75a2.25 2.25 0 0 1-3.206 2.038.562.562 0 0 1-.041.037L8.72 22.823a.561.561 0 0 1-.773-.067A.533.533 0 0 1 8 22L25.5 7.5a.53.53 0 0 1 .104-.073A2.25 2.25 0 1 1 30 6.75Zm-1.5 0a.75.75 0 1 0-1.5 0 .75.75 0 0 0 1.5 0Z"/><path fill="#3F5FFF" d="M5 18.5h14V20H5v-1.5Z"/></svg>
